public/svg/dress2.svg

<svg width="214" height="331" viewBox="0 0 214 331" fill="none" xmlns="http://www.w3.org/2000/svg">
<path fill-rule="evenodd" clip-rule="evenodd" d="M129.938 286.29C135.012 286.29 133.13 284.464 134.922 297.253C136.103 305.675 139.37 321.094 143.303 328.611C141.414 328.611 138.754 327.621 136.976 327.184C134.782 326.645 132.642 326.236 130.359 325.695C107.067 320.181 73.6582 308.3 52.1952 308.35L44.4684 307.984C41.7718 307.984 39.0753 307.984 36.3787 307.984C37.5102 303.699 41.7227 303.611 45.2428 302.721L67.7242 296.29C85.5788 290.935 111.252 286.29 129.938 286.29ZM34.2682 307.628H23.3647C24.6623 306.488 27.7477 306.408 29.2505 306.111L35.6752 305.139C35.4019 306.174 34.8463 306.524 34.2682 307.628ZM39.8959 302.649C41.1209 300.309 42.5705 298.128 43.9695 295.743C45.7902 292.64 49.6122 284.204 51.2487 280.342C56.1235 268.84 59.3955 258.523 63.6647 247.375C67.1771 238.204 63.6928 241.057 75.0175 236.449L123.607 217.296C125.014 216.731 126.082 216.216 127.576 215.619C128.824 215.119 130.468 214.198 131.696 214.095C131.696 229.345 131.179 252.72 132.381 267.459L132.744 275.984C132.732 278.725 133.455 281.933 133.455 284.512C130.825 284.512 129.314 284.855 127.138 284.881C112.644 285.058 97.8929 287.685 84.0636 290.762C68.5286 294.218 55.0811 299.072 39.8959 302.649ZM18.4408 308.339C20.237 309.556 21.6515 309.034 25.1356 309.039C27.6104 309.042 29.58 309.406 32.5097 309.406C31.1182 311.507 27.3078 314.636 25.0588 316.098C15.7224 322.17 1.55782 320.25 1.55782 313.674C1.55782 309.275 13.8368 296.59 17.4315 292.027C30.4835 275.457 35.7069 266.681 46.5828 249.307C48.0164 247.017 58.037 243.595 60.8531 242.398C62.0638 241.884 62.5787 241.414 63.8133 241.123C62.3051 247.669 51.2182 274.904 48.3918 282.077C45.4634 289.51 42.4824 294.082 38.9525 300.628C37.0345 304.186 35.8597 303.484 28.838 304.627C26.6622 304.981 24.9189 305.218 22.805 305.639C20.6227 306.075 18.625 306.1 18.4408 308.339ZM133.103 213.384C136.689 211.465 152.634 205.091 156.873 203.988C161.614 202.755 164.251 203.571 166.517 202.359L186.515 260.734C189.921 269.359 196.008 281.721 200.835 289.643C201.188 290.22 201.34 290.476 201.65 290.953C202.237 291.859 202.083 291.16 202.393 292.336C198.609 292.017 183.898 284.512 164.407 284.512H135.214L134.147 272.076C133.903 263.458 133.455 258.91 133.455 249.659C133.455 237.143 133.103 225.783 133.103 213.384ZM133.103 211.605C134.167 206.99 133.455 189.154 133.455 182.799C133.455 177.739 133.831 173.8 133.802 168.568L135.065 140.683C135.873 135.285 135.917 103.936 135.917 97.8007C136.906 99.2398 140.087 113.702 140.342 115.02C141.984 123.507 144.135 132.897 146.51 141.147C150.553 155.188 155.017 168.72 159.615 182.665C160.553 185.51 163.66 196.596 164.138 199.87C164.532 202.566 162.785 200.161 156.534 202.222C150.508 204.208 134.526 211.486 133.103 211.605ZM158.427 173.908C158.427 172.998 158.984 173.851 158.636 173.908C158.632 173.908 158.427 174.9 158.427 173.908ZM86.6755 168.217C86.484 170.542 81.239 186.754 80.1959 190.473C77.2577 200.947 72.8147 213.486 69.7926 223.697C68.7489 227.223 67.3613 230.889 66.1426 234.588C64.0508 240.936 65.1344 239.391 53.9145 243.918C52.2066 244.607 50.1879 245.301 48.6891 246.103L62.5189 220.61C63.0302 219.687 63.3873 218.869 63.8133 218.007L84.366 173.351C84.7483 172.378 84.9804 171.761 85.3874 170.827L86.6755 168.217ZM86.6755 168.217L86.8689 167.453L86.6755 168.217ZM98.6342 132.654L98.739 132.76C98.732 132.753 98.5991 132.689 98.6342 132.654ZM98.9857 131.587C98.9857 130.677 99.5427 131.529 99.1949 131.587C99.1908 131.587 98.9857 132.579 98.9857 131.587ZM99.6892 129.808C99.6892 131.623 99.6943 130.398 99.3375 130.875C99.3375 128.995 99.3401 130.345 99.6892 129.808ZM26.882 251.793C26.882 249.096 29.9257 244.822 31.1688 242.968C32.9861 240.258 34.941 237.905 36.8002 235.148C38.6008 232.478 40.4278 230.197 42.2194 227.469C49.1256 216.952 53.6327 210.157 60.2295 199.091L72.3226 177.888C73.2188 176.4 73.7804 175.049 74.5943 173.428L81.2828 160.275C82.8406 157.151 83.9467 154.153 85.5045 151.03C86.2214 149.593 86.8512 148.102 87.4797 146.626C88.2125 144.905 88.7761 143.525 89.495 141.906L101.448 113.449C101.414 114.996 100.747 117.532 100.483 118.875C98.7683 127.59 95.9841 137.039 93.5579 145.658C93.0208 147.567 92.5095 149.193 91.9929 150.833C91.4107 152.681 91.0942 154.142 90.3973 155.977L65.5718 211.961C64.077 214.984 62.6613 217.847 61.1168 220.971L56.545 229.862C55.0305 232.98 53.2725 235.451 51.7362 238.514C50.9964 239.99 47.5918 246.186 46.5888 246.824C45.4973 247.518 26.882 255.465 26.882 251.793ZM101.448 112.738L101.553 112.844C101.546 112.837 101.413 112.773 101.448 112.738ZM106.02 96.0227L106.125 96.1286C106.118 96.1218 105.985 96.0579 106.02 96.0227ZM106.724 94.2444C106.724 96.0594 106.729 94.8344 106.372 95.3113C106.372 93.431 106.375 94.781 106.724 94.2444ZM106.724 94.2444C106.724 91.456 109.889 80.039 109.889 77.5293H110.241C110.241 82.0955 109.033 85.9484 107.992 90.1921L106.837 94.0036C106.815 94.057 106.771 94.1693 106.724 94.2444ZM108.834 71.1278C109.242 70.7157 110.839 71.7295 109.273 71.2727C109.231 71.2604 108.224 71.7452 108.834 71.1278ZM119.386 70.0609C120.036 71.304 120.494 71.663 121.145 72.9061C119.45 72.507 118.611 71.6082 116.572 71.1278C117.179 70.2899 118.064 70.1722 119.386 70.0609ZM132.4 67.9271C134.34 68.0903 133.692 68.3306 133.889 70.3335C134.007 71.5343 134.174 72.2674 134.167 73.9647C134.156 76.5754 134.158 79.1862 134.158 81.797H133.807C133.807 78.4775 132.4 72.6492 132.4 67.9271ZM113.055 70.0609C112.064 70.0609 112.403 69.9072 112 69.3495C113.995 68.8797 115.21 67.3897 117.276 67.2157C117.624 68.5344 117.631 67.6755 117.979 68.994C116.165 69.1467 115.096 70.0609 113.055 70.0609ZM120.089 68.2826C119.361 67.1834 119.037 67.4927 118.682 66.1488L129.234 61.17C129.578 62.6625 129.938 64.3152 129.938 66.1488C127.129 66.1488 122.642 67.6814 120.089 68.2826ZM102.151 69.7053C103.299 68.1221 111.653 64.2381 114.11 63.6594C114.766 64.1456 115.627 65.2321 115.869 66.1488C114.097 66.5665 111.814 68.0039 110.133 68.8848C108.778 69.5952 108.71 69.7168 106.743 69.7247C105.218 69.7306 103.679 69.7053 102.151 69.7053ZM131.345 60.1031C132.389 59.5442 133.466 59.2393 134.51 58.6804L135.214 66.8601C133.594 66.4786 134.254 66.1488 132.048 66.1488C132.048 63.851 131.4 62.1547 131.345 60.1031ZM136.269 57.9693C137.176 58.6415 136.792 57.5449 137.267 61.2278L138.831 72.4495C142.076 97.1848 150.568 131.867 155.819 158.408L157.326 170.398C157.038 169.507 156.657 168.352 156.361 167.462C155.689 165.445 155.179 163.514 154.513 161.506C150.716 150.045 146.927 136.964 144.221 124.968C141.613 113.408 140.023 104.719 136.824 93.3277C135.467 88.4973 135.904 84.3108 135.918 78.596C135.925 75.4537 135.565 73.7902 135.565 70.7722L136.5 70.5706C138.374 69.5715 136.404 62.9172 136.269 57.9693ZM117.276 65.0819C116.8 64.3634 116.345 63.6667 115.869 62.948C117.901 61.9624 120.439 61.2916 122.594 60.5015L127.574 58.7396C128.818 58.3451 128.023 58.1144 129.234 58.6804C128.886 59.9989 127.972 60.0478 126.656 60.697C125.509 61.2633 124.657 61.7216 123.612 62.2421L117.276 65.0819ZM131.345 58.3248V57.2579C132.7 56.9386 133.317 56.4721 134.51 56.191C134.175 57.46 132.975 57.9409 131.345 58.3248ZM136.269 55.8354C136.143 55.1623 136.712 54.5708 136.491 55.6103C136.486 55.6345 136.501 57.0768 136.269 55.8354ZM138.027 55.4796C138.027 53.8988 137.845 53.405 138.379 52.2789C139.642 53.1344 139.435 53.4261 140.138 54.7685C139.315 55.2087 139.222 55.3793 138.027 55.4796ZM89.4892 29.1623C91.4501 29.6918 103.878 40.9343 122.438 31.5376C125.73 29.8712 128.899 28.3579 132.048 26.6729C132.048 29.2898 132.192 31.1941 132.499 33.6849C132.756 35.7632 132.903 37.99 133.159 40.4863C133.628 45.0557 134.158 49.128 134.158 54.4127C133.298 54.873 132.545 55.0678 131.696 55.4796C131.696 54.0347 131.814 54.3347 131.345 53.3458C128.123 53.4185 129.66 55.2016 128.539 56.5551L119.519 59.8824C117.761 60.4643 116.46 61.1377 114.813 61.5256L89.4892 29.1623ZM133.103 25.9615C133.937 25.5159 134.537 25.1369 135.565 24.8946C135.565 33.1779 138.599 45.9099 137.233 49.697L135.999 52.5517C135.488 51.4055 135.596 51.2993 135.561 50.1497C135.507 48.3758 135.359 48.1519 135.223 46.5787L133.103 25.9615ZM132.751 22.4052V10.6692C132.751 7.55626 133.455 5.45816 133.455 2.84519H133.807C133.807 6.1908 135.214 18.902 135.214 23.1166C133.908 23.8147 132.751 25.0099 132.751 22.4052ZM66.9788 238.278L79.0641 199.998C83.2708 185.541 88.036 170.712 92.0282 156.203C95.0717 145.142 100.559 132.733 103.281 122.771C103.694 121.26 104.211 119.892 104.69 118.15L108.837 103.138C110.014 98.6413 112.014 89.9599 113.686 85.6065C114.19 84.2932 114.392 84.5543 113.758 83.2197C112.419 83.5811 112.52 83.6687 112.187 85.1874C110.228 94.1257 104.433 115.975 101.755 124.073C101.191 125.776 100.545 128.563 99.6892 129.808L103.957 108.518C104.404 105.795 104.905 103.848 105.713 101.403C108.198 93.8842 110.953 85.6242 111.688 77.5508C111.889 75.3458 112.298 75.8866 111.296 73.973C108.613 74.0334 108.528 76.9432 107.988 79.5193L103.458 102.679C102.054 111.268 89.2181 141.603 84.2186 151.863C83.7109 152.905 83.1972 153.789 82.7048 154.956C80.0124 161.335 76.6857 167.399 73.6618 173.552C70.6963 179.587 67.3705 185.266 63.9244 191.091L49.8853 213.882C48.5863 215.852 47.4603 217.559 46.2269 219.429L31.0013 240.665C18.1824 258.031 28.6962 256.164 42.2604 250.272C43.3231 249.81 44.541 249.179 45.5234 248.948C44.909 251.274 42.9985 253.421 41.7234 255.419C40.3111 257.631 39.1479 259.507 37.7155 261.68C36.3368 263.771 35.0731 265.87 33.6184 267.851C29.2496 273.799 25.2394 279.896 20.703 285.732L8.99633 299.857C5.85481 303.836 -1.92673 310.364 0.441575 315.867C3.25967 322.416 16.6641 322.355 23.3732 319.017C26.911 317.257 32.8566 312.776 34.6199 309.406C40.054 309.406 45.7648 309.231 51.1625 309.395C56.2024 309.547 61.2756 310.284 66.172 310.934C75.6111 312.185 84.749 314.57 93.3609 316.872C106.254 320.319 119.1 324.723 132.121 327.825C143.018 330.422 148.173 334.309 144.36 325.764C142.156 320.825 140.488 315.265 139.343 309.855C138.567 306.191 137.719 302.201 137.072 298.281C136.461 294.573 135.565 289.908 135.565 285.934L153.153 285.933C155.592 285.924 156.804 286.242 158.768 286.301C160.592 286.357 162.57 286.297 164.409 286.287C176.451 286.225 192.006 290.569 203.252 295.024C207.405 296.668 207.694 300.263 211.884 301.266C213.078 301.551 212.936 301.44 214 300.871C213.924 297.431 208.39 295.681 206.203 293.818C205.748 293.431 204.485 291.72 203.997 291.07C197.594 282.546 187.406 259.519 184.496 250.684C181.395 241.268 172.643 214.365 169.434 206.167C164.822 194.386 163.345 187.5 160.802 174.708L154.295 141.455C150.813 124.938 146.957 108.685 143.686 92.0797C142.627 86.705 141.424 80.6505 140.841 75.0399C140.269 69.5309 138.379 62.7224 138.379 57.2579C139.573 56.6787 140.943 56.8025 141.43 55.3235C142.338 52.5613 139.021 51.8746 139.066 47.6721C139.121 42.5614 138.222 38.4364 137.61 33.496C137.259 30.657 136.864 26.7862 136.621 23.8277C138.888 23.2157 146.041 18.2083 148.594 16.7305C150.093 15.8633 151.615 15.6932 152.096 13.8699C150.82 13.2506 151.338 13.3423 150.189 14.0378L144.591 17.6614C142.282 18.9248 139.086 21.4687 136.621 22.0497C136.621 20.2021 136.274 18.7444 136.28 16.3483C136.285 14.0574 135.89 13.1723 135.913 10.6728C135.946 7.16008 135.687 2.24835 134.51 0C132.047 0.0555482 131.916 2.05993 131.72 4.29164L131.34 18.1422C131.325 20.8411 131.696 22.0994 131.696 24.8946C126.852 27.4865 120.988 30.5994 115.525 32.0158C103.376 35.1656 94.0118 30.2439 85.2223 23.1633C84.053 22.2212 83.0847 21.4577 82.0135 20.3619C79.0085 17.2877 76.3143 14.3725 73.9433 10.7399C73.0617 9.38885 72.6593 7.97642 70.8478 7.82397C69.7078 9.54523 70.1128 9.56358 71.1388 12.1528C71.7154 13.6083 72.4301 14.8563 73.2561 16.0581C75.2453 18.9517 77.5966 22.045 80.3435 24.1842C84.1334 27.1354 84.9335 27.9256 88.341 31.3903C93.2469 36.3789 88.3742 30.1391 97.1463 40.9803L102.658 47.8544C105.201 51.2844 111.124 58.5477 113.055 62.2369C109.629 64.0695 105.468 64.9512 102.288 67.3545C99.4595 69.4927 99.4982 71.8311 102.731 71.4144C103.806 71.2761 104.373 71.1278 106.02 71.1278C104.983 72.5589 99.1324 75.2137 98.7753 76.3224C97.8661 79.1461 105.049 74.5821 106.417 74.0183C108.122 73.3152 109.236 73.0201 111.12 72.3702C113.574 71.5232 113.909 71.7014 116.178 72.5933C117.768 73.2181 118.823 73.936 120.328 74.7989C122.225 75.8856 122.695 76.448 124.662 75.3955C124.445 72.7568 122.479 71.3644 121.145 69.3495L130.289 67.5715C130.289 72.8772 131.424 79.1402 132.485 84.2005C134.53 93.9542 134.51 90.336 134.51 101.357C134.51 114.381 134.187 126.232 133.818 138.711C133.694 142.9 133.088 147.485 133.111 151.866C133.123 154.047 132.795 154.614 132.74 156.47C132.695 157.991 132.784 159.59 132.766 161.119C132.741 163.137 132.391 163.579 132.388 165.716C132.386 167.262 132.414 168.817 132.412 170.363C132.409 172.5 132.059 172.942 132.034 174.961C131.877 187.831 131.696 199.72 131.696 212.672L83.2897 232.01C80.4503 233.029 77.9392 234.059 75.1695 235.18C73.4839 235.862 68.4333 238.156 66.9788 238.278Z" fill="#FEFEFE"/>
</svg>

<svg xmlns="http://www.w3.org/2000/svg" width="214" height="331" fill="none" xmlns:v="https://vecta.io/nano"><path fill-rule="evenodd" d="M129.938 286.3c5.074 0 3.192-1.826 4.984 10.963 1.18 8.422 4.448 23.84 8.38 31.358-1.89 0-4.55-1-6.327-1.427-2.194-.54-4.334-.948-6.617-1.49-23.292-5.514-56.7-17.395-78.164-17.345l-7.727-.366h-8.1c1.13-4.285 5.344-4.373 8.864-5.263l22.48-6.43c17.855-5.355 43.528-10 62.214-10zm-95.67 21.338H23.365c1.298-1.14 4.383-1.22 5.886-1.517l6.425-.972c-.273 1.035-.83 1.385-1.407 2.49zm5.628-4.98c1.225-2.34 2.675-4.52 4.074-6.906 1.82-3.103 5.643-11.54 7.28-15.4 4.875-11.502 8.147-21.82 12.416-32.967 3.512-9.17.028-6.318 11.353-10.926l48.6-19.153c1.407-.565 2.475-1.08 3.97-1.677 1.248-.5 2.892-1.42 4.12-1.524 0 15.25-.517 38.625.685 53.364l.363 8.525c-.012 2.74.71 5.95.71 8.528-2.63 0-4.14.343-6.317.37-14.494.177-29.245 2.804-43.074 5.88-15.535 3.456-28.982 8.3-44.168 11.887zm-21.455 5.7c1.796 1.217 3.21.695 6.695.7 2.475.003 4.444.367 7.374.367-1.392 2.1-5.202 5.23-7.45 6.692-9.336 6.072-23.5 4.152-23.5-2.424 0-4.4 12.28-17.084 15.874-21.647 13.052-16.57 18.275-25.346 29.15-42.72 1.434-2.3 11.454-5.712 14.27-6.91 1.21-.514 1.726-.984 2.96-1.275-1.508 6.546-12.595 33.78-15.42 40.954-2.928 7.433-5.91 12.005-9.44 18.55-1.918 3.558-3.093 2.856-10.114 4-2.176.354-3.92.59-6.033 1.012-2.182.436-4.18.46-4.364 2.7zm114.662-94.955c3.586-1.92 19.53-8.293 23.77-9.396 4.74-1.233 7.378-.417 9.644-1.63l19.998 58.375c3.406 8.625 9.493 20.987 14.32 28.91l.815 1.3c.587.906.433.207.743 1.383-3.784-.32-18.495-7.824-37.986-7.824h-29.193l-1.067-12.436c-.244-8.618-.692-13.166-.692-22.417l-.352-36.275zm0-1.78c1.064-4.615.352-22.45.352-28.806 0-5.06.376-9 .347-14.23l1.263-27.885c.808-5.398.852-36.747.852-42.882.99 1.44 4.17 15.9 4.425 17.22 1.642 8.487 3.793 17.877 6.168 26.127 4.043 14.04 8.507 27.573 13.105 41.518.938 2.845 4.045 13.93 4.523 17.205.394 2.696-1.353.29-7.604 2.352-6.026 1.986-22.008 9.264-23.43 9.383zm25.324-37.697c0-.9.557-.057.21 0-.004 0-.21.992-.21 0zm-71.75-5.69c-.192 2.325-5.436 18.537-6.48 22.256-2.938 10.474-7.38 23.013-10.403 33.224-1.044 3.526-2.43 7.192-3.65 10.89-2.092 6.348-1.008 4.803-12.228 9.33-1.708.69-3.727 1.383-5.225 2.185L62.52 220.6c.51-.923.868-1.74 1.294-2.603l20.553-44.656c.382-.973.614-1.6 1.02-2.524l1.288-2.6zm0 0l.193-.764-.193.764zm11.96-35.563l.105.106c-.007-.007-.14-.07-.105-.106zm.35-1.067c0-.9.557-.058.21 0-.004 0-.21.992-.21 0zm.704-1.78c0 1.815.005.6-.352 1.067 0-1.88.003-.53.352-1.067zM26.882 251.793c0-2.697 3.044-6.97 4.287-8.825 1.817-2.7 3.772-5.063 5.63-7.82 1.8-2.67 3.628-4.95 5.42-7.68 6.906-10.517 11.413-17.312 18-28.378l12.093-21.203c.896-1.488 1.458-2.84 2.272-4.46l6.688-13.153c1.558-3.124 2.664-6.122 4.222-9.245.717-1.437 1.347-2.928 1.975-4.404l2.015-4.72 11.953-28.457c-.034 1.547-.7 4.083-.965 5.426-1.715 8.715-4.5 18.164-6.925 26.783-.537 1.91-1.048 3.535-1.565 5.175-.582 1.848-.9 3.31-1.596 5.144L65.572 211.96l-4.455 9-4.572 8.89c-1.514 3.118-3.273 5.59-4.81 8.652-.74 1.476-4.144 7.672-5.147 8.3-1.09.694-19.707 8.64-19.707 4.97zm74.566-139.055l.105.106c-.007-.007-.14-.07-.105-.106zm4.572-16.715l.105.106c-.007-.007-.14-.07-.105-.106zm.704-1.778c0 1.815.005.6-.352 1.067 0-1.88.003-.53.352-1.067zm0 0c0-2.788 3.165-14.205 3.165-16.715h.352c0 4.566-1.208 8.42-2.25 12.663l-1.155 3.812c-.022.053-.066.166-.113.24zm2.1-23.117c.408-.412 2.005.602.44.145-.042-.012-1.05.472-.44-.145zm10.552-1.067c.65 1.243 1.108 1.602 1.76 2.845-1.695-.4-2.534-1.298-4.573-1.778.607-.838 1.492-.956 2.814-1.067zm13.014-2.134c1.94.163 1.292.404 1.49 2.406.118 1.2.285 1.934.278 3.63l-.01 7.832h-.35c0-3.32-1.407-9.148-1.407-13.87zm-19.345 2.134c-.99 0-.652-.154-1.055-.71 1.995-.47 3.2-1.96 5.276-2.134.348 1.32.355.46.703 1.778-1.814.153-2.883 1.067-4.924 1.067zm7.034-1.778c-.728-1.1-1.052-.8-1.407-2.134l10.552-4.98c.344 1.492.704 3.145.704 4.98-2.81 0-7.296 1.533-9.85 2.134zm-17.938 1.423c1.148-1.583 9.502-5.467 11.96-6.046.656.486 1.517 1.573 1.76 2.49-1.772.418-4.055 1.855-5.736 2.736-1.355.7-1.423.832-3.4.84-1.525.006-3.064-.02-4.592-.02zm29.194-9.602c1.044-.56 2.12-.864 3.165-1.423l.704 8.18c-1.62-.382-.96-.71-3.166-.71 0-2.298-.648-3.994-.703-6.046zm4.924-2.134c.907.672.523-.424.998 3.26l1.564 11.222c3.245 24.735 11.737 59.417 16.988 85.958l1.507 12-.965-2.936c-.672-2.017-1.182-3.948-1.848-5.956-3.797-11.46-7.586-24.542-10.292-36.538-2.608-11.56-4.198-20.25-7.397-31.64-1.357-4.83-.92-9.017-.906-14.732.007-3.142-.353-4.806-.353-7.824l.935-.202c1.874-1-.096-7.653-.23-12.6zm-18.993 7.113l-1.407-2.134c2.032-.986 4.57-1.656 6.725-2.447l4.98-1.762c1.244-.395.45-.625 1.66-.06-.348 1.32-1.262 1.367-2.578 2.017l-3.044 1.545-6.336 2.84zm14.07-6.757v-1.067c1.355-.32 1.972-.786 3.165-1.067-.335 1.27-1.535 1.75-3.165 2.134zm4.924-2.49c-.126-.673.443-1.265.222-.225-.005.024.01 1.466-.222.225zm1.758-.356c0-1.58-.182-2.075.352-3.2 1.263.855 1.056 1.147 1.76 2.5-.823.44-.916.61-2.11.71zM89.49 29.162c1.96.53 14.39 11.772 32.95 2.375l9.6-4.865c0 2.617.144 4.52.45 7.012.257 2.078.404 4.305.66 6.8.47 4.57 1 8.642 1 13.926-.86.46-1.613.655-2.462 1.067 0-1.445.118-1.145-.35-2.134-3.222.073-1.685 1.856-2.806 3.21l-9.02 3.327c-1.758.582-3.06 1.255-4.706 1.643L89.49 29.162zm43.614-3.2c.834-.446 1.434-.825 2.462-1.067 0 8.283 3.034 21.015 1.668 24.802L136 52.552c-.51-1.146-.403-1.252-.438-2.402-.054-1.774-.202-1.998-.338-3.57l-2.12-20.617zm-.352-3.556V10.67c0-3.113.704-5.21.704-7.824h.352c0 3.346 1.407 16.057 1.407 20.27-1.306.698-2.463 1.893-2.463-.71zM66.98 238.278l12.085-38.28 12.964-43.795c3.044-11.06 8.53-23.47 11.253-33.432.413-1.51.93-2.88 1.41-4.62l4.147-15.012c1.177-4.497 3.177-13.178 4.85-17.532.504-1.313.706-1.052.072-2.387-1.34.36-1.238.45-1.57 1.968-1.96 8.938-7.754 30.788-10.432 38.886-.564 1.703-1.2 4.5-2.066 5.735l4.268-21.3a42.98 42.98 0 0 1 1.756-7.115c2.485-7.52 5.24-15.78 5.975-23.852.2-2.205.6-1.664-.392-3.578-2.683.06-2.768 2.97-3.308 5.546l-4.53 23.16c-1.404 8.59-14.24 38.924-19.24 49.184-.508 1.042-1.02 1.926-1.514 3.093-2.692 6.38-6.02 12.443-9.043 18.596-2.966 6.035-6.29 11.714-9.737 17.54l-14.04 22.79-3.658 5.547L31 240.665c-12.82 17.366-2.305 15.5 11.26 9.607 1.063-.462 2.28-1.093 3.263-1.324-.614 2.326-2.525 4.473-3.8 6.47l-4.008 6.26c-1.38 2.09-2.642 4.2-4.097 6.17-4.37 5.948-8.38 12.045-12.915 17.88L8.996 299.857c-3.142 3.98-10.923 10.507-8.555 16 2.818 6.55 16.223 6.488 22.932 3.15 3.538-1.76 9.483-6.24 11.247-9.61 5.434 0 11.145-.175 16.543-.01 5.04.152 10.113.89 15.01 1.54 9.44 1.25 18.577 3.636 27.19 5.938 12.893 3.447 25.74 7.85 38.76 10.953 10.897 2.597 16.052 6.484 12.24-2.06-2.204-4.94-3.872-10.5-5.017-15.91-.776-3.664-1.624-7.654-2.27-11.574-.61-3.708-1.507-8.373-1.507-12.347l17.588-.001c2.44-.01 3.65.31 5.615.368 1.824.056 3.802-.004 5.64-.014 12.042-.062 27.597 4.282 38.843 8.737 4.153 1.644 4.442 5.24 8.632 6.242 1.194.285 1.052.174 2.116-.395-.076-3.44-5.6-5.2-7.797-7.053-.455-.387-1.718-2.098-2.206-2.748-6.403-8.524-16.59-31.55-19.5-40.386l-15.062-44.517c-4.612-11.78-6.09-18.667-8.632-31.46l-6.507-33.253-10.61-49.375c-1.06-5.375-2.262-11.43-2.845-17.04-.572-5.51-2.462-12.318-2.462-17.782 1.194-.58 2.564-.455 3.05-1.934.908-2.762-2.41-3.45-2.364-7.65.055-5.11-.844-9.236-1.456-14.176-.35-2.84-.746-6.7-.99-9.668 2.267-.612 9.42-5.62 11.973-7.097 1.5-.867 3.02-1.037 3.502-2.86-1.276-.62-.758-.528-1.907.168l-5.598 3.624c-2.31 1.263-5.505 3.807-7.97 4.388 0-1.848-.347-3.305-.34-5.7.005-2.29-.4-3.176-.367-5.675.033-3.513-.226-8.424-1.403-10.673-2.463.056-2.594 2.06-2.8 4.292l-.38 13.85c-.015 2.7.356 3.957.356 6.752-4.844 2.592-10.708 5.705-16.17 7.12-12.15 3.15-21.513-1.772-30.303-8.852-1.17-.942-2.138-1.706-3.21-2.8-3.005-3.074-5.7-5.99-8.07-9.622-.882-1.35-1.284-2.763-3.095-2.916-1.14 1.72-.735 1.74.29 4.33.577 1.456 1.29 2.704 2.117 3.905 1.99 2.894 4.34 5.987 7.087 8.126 3.8 2.95 4.6 3.74 7.997 7.206 4.906 4.99.033-1.25 8.805 9.6l5.512 6.874c2.543 3.43 8.466 10.693 10.397 14.383-3.426 1.833-7.587 2.714-10.767 5.118-2.828 2.138-2.8 4.477.443 4.06 1.075-.138 1.642-.287 3.29-.287-1.037 1.43-6.888 4.086-7.245 5.195-.91 2.824 6.274-1.74 7.642-2.304 1.705-.703 2.82-.998 4.703-1.648 2.454-.847 2.79-.67 5.058.223 1.6.625 2.645 1.343 4.15 2.206 1.897 1.087 2.367 1.65 4.334.597-.217-2.64-2.183-4.03-3.517-6.046l9.144-1.778c0 5.306 1.135 11.57 2.196 16.63 2.045 9.754 2.025 6.135 2.025 17.156 0 13.024-.323 24.875-.692 37.354-.124 4.19-.73 8.774-.707 13.155.012 2.18-.316 2.748-.37 4.604-.045 1.52.044 3.12.026 4.65-.025 2.018-.375 2.46-.378 4.597l.024 4.647c-.003 2.137-.353 2.58-.378 4.598l-.338 37.71L83.3 232c-2.84 1.02-5.35 2.05-8.12 3.17-1.686.682-6.736 2.976-8.19 3.098z" fill="#fefefe"/></svg>
